img/ELDBusiness.svg

<svg height="113" viewBox="0 0 92 113" width="92" xmlns="http://www.w3.org/2000/svg"><g fill="none" fill-rule="evenodd" transform="translate(.775 .48)"><path d="m70.725 1.725v31.05l-20.7-9.2c-13.708 12.259-29.9 9.2-29.9 9.2v-12.65s3.588-18.4 25.3-18.4z" fill="#846954"/><path d="m48.875 83.375 5.75 13.8-6.9 12.65h-4.6l-6.9-12.65 5.75-13.8.115-.483c1.035.299 2.162.483 3.335.483s2.3-.184 3.335-.483z" fill="#f4661e"/><path d="m67.275 84.525s-.138 18.193-17.25 25.3h-2.3l6.9-12.65-5.75-13.8-.115-.483c4.945-1.357 8.165-5.267 8.165-5.267 2.507 2.806 10.35 6.9 10.35 6.9z" fill="#e7eced"/><path d="m36.225 97.175 6.9 12.65h-2.3c-17.112-7.107-17.25-25.3-17.25-25.3s7.843-4.094 10.35-6.9c0 0 3.22 3.91 8.165 5.267l-.115.483z" fill="#e7eced"/><path d="m67.275 84.525 10.35 13.8-9.2 4.6 5.75 6.9h-24.15c17.112-7.107 17.25-25.3 17.25-25.3z" fill="#545253"/><path d="m40.825 109.825h-24.15l5.75-6.9-9.2-4.6 10.35-13.8s.138 18.193 17.25 25.3z" fill="#545253"/><path d="m89.125 104.075v5.75h-14.95l-5.75-6.9 9.2-4.6-10.35-13.8c21.781 6.9 21.85 19.55 21.85 19.55z" fill="#373738"/><path d="m70.725 38.525c3.818 0 6.9 1.426 6.9 4.6 0 2.944-3.634 6.348-7.199 6.831.207-1.472.299-2.99.299-4.531z" fill="#ffd7a3"/><path d="m70.426 49.956c-1.242 8.993-6.118 16.537-13.501 20.355-3.358 1.748-7.222 2.714-11.5 2.714s-8.142-.966-11.5-2.714c-7.383-3.818-12.259-11.362-13.501-20.355-.207-1.472-.299-2.99-.299-4.531v-6.9-5.75s16.192 3.059 29.9-9.2l20.7 9.2v5.75 6.9c0 1.541-.092 3.059-.299 4.531z" fill="#ffe1b2"/><path d="m56.925 70.311v7.314s-3.22 3.91-8.165 5.267c-1.035.299-2.162.483-3.335.483s-2.3-.184-3.335-.483c-4.945-1.357-8.165-5.267-8.165-5.267v-7.314c3.358 1.748 7.222 2.714 11.5 2.714s8.142-.966 11.5-2.714z" fill="#ffd7a3"/><path d="m23.575 84.525-10.35 13.8 9.2 4.6-5.75 6.9h-14.95v-5.75s.207-12.581 21.85-19.55z" fill="#373738"/><path d="m20.125 45.425c0 1.541.092 3.059.299 4.531-3.565-.483-7.199-3.887-7.199-6.831 0-3.174 3.082-4.6 6.9-4.6z" fill="#ffd7a3"/><g fill="#231f20"><path d="m68.32771 83.05369-2.75586-1.43704c-2.34968-1.34987-5.36751-3.22782-6.92208-4.69499v-5.58877c6.98878-3.99579 11.76772-11.16489 13.29492-19.94008 3.95945-1.1339 7.40531-4.84978 7.40531-8.26781 0-3.45989-2.60084-5.75598-6.9-6.23162v-36.89338h-27.025c-11.90894 0-18.61781 5.36199-22.14877 9.85987-3.82375 4.87094-4.80447 9.73038-4.84426 9.93485l-.03197.16353v16.9349c-4.29916.47564-6.9 2.77173-6.9 6.23162 0 3.41803 3.44609 7.13391 7.40508 8.26758 1.52881 8.77864 6.30844 15.94751 13.29492 19.94031v5.58877c-1.55434 1.46717-4.57217 3.34535-6.92208 4.69499l-2.75839 1.44049c-22.03814 7.30043-22.5101 20.42975-22.5193 20.98934l-.00023 7.50375h90.85v-7.48443c-.00322-.56327-.33465-13.77585-22.52229-21.01188zm-22.90271-8.30369c3.46817 0 6.74452-.59685 9.775-1.77123v3.98222c-.9315.9729-3.45621 3.3235-6.89632 4.26742l-.02254.00621c-1.9067.55108-3.80512.55108-5.71228 0l-.02231-.00621c-3.41435-.93702-5.95976-3.29866-6.89655-4.27087v-3.979c3.03186 1.17484 6.30752 1.77146 9.775 1.77146zm11.55658 5.29759c2.55829 2.1436 6.59732 4.43877 8.50517 5.47722-.32729 3.61744-2.33611 15.99581-14.53485 21.98662l5.58348-10.23638-5.55105-13.32252c2.68824-1.09066 4.76376-2.74712 5.99725-3.90494zm-17.11591 3.90471-5.55105 13.32252 5.58072 10.23132c-5.78105-2.82831-9.97257-7.36598-12.4637-13.52032-1.46924-3.63009-1.92648-6.88068-2.06816-8.46101 1.90785-1.03845 5.94688-3.33362 8.50517-5.47722 1.23326 1.15782 3.30878 2.81428 5.99702 3.90471zm-15.68439 11.19801c2.14337 5.36107 5.55013 9.74901 10.00431 12.94969h-13.8276l4.78653-5.74379-9.29936-4.64968 6.53154-8.70872c.3381 1.74409.89332 3.87297 1.80458 6.1525zm13.9541 1.92464 5.06851-12.1647c1.47821.24725 2.96378.24725 4.44199 0l5.06874 12.1647-6.01358 11.02505h-2.55208zm28.53334-1.92464c.91126-2.27953 1.46648-4.40841 1.80458-6.1525l6.53154 8.70872-9.29959 4.64968 4.78676 5.74379h-13.82737c4.45418-3.20068 7.86094-7.58885 10.00408-12.94969zm9.23128-52.02531c0 1.40898-1.52421 3.32741-3.51118 4.3861.03795-.68172.06118-7.15024.06118-7.15024 3.07441.43102 3.45 2.02078 3.45 2.76414zm-49.81961-31.24918c4.4482-5.59084 10.95674-8.42582 19.34461-8.42582h23.575v26.67057l-19.29355-8.57486-.83145.74359c-5.38821 4.81873-11.79371 7.76434-19.03825 8.75541-3.51095.48024-6.37928.35903-7.98675.21022v-10.94064c.18676-.78844 1.2167-4.65083 4.23039-8.43847zm-11.13039 31.24918c0-.74336.37559-2.33312 3.45-2.76414 0 0 .02323 6.46875.06118 7.15024-1.98697-1.05892-3.51118-2.97712-3.51118-4.3861zm7.18221 6.59088c-.18722-1.3317-.28221-2.77518-.28221-4.29088v-10.70397c1.82758.15157 4.75893.23414 8.31243-.2392 5.28816-.70449 12.99178-2.82578 20.16548-8.88467l18.67209 8.29886v11.52898c0 1.51478-.09499 2.95849-.28267 4.29502-1.18634 8.58981-5.77346 15.53627-12.58859 19.06102-3.21149 1.67141-6.8126 2.51896-10.70374 2.51896-3.89091 0-7.49225-.84755-10.70765-2.52126-6.81122-3.52222-11.39811-10.46891-12.58514-19.06286zm-18.68221 54.38005c.0115-.31326.52141-9.35042 15.18161-15.85482l-8.02677 10.70236 9.10064 4.55032-3.83847 4.60621h-12.41701zm83.95 4.00407h-12.41701l-3.83847-4.60621 9.10041-4.55032-8.05046-10.7341c4.66463 2.05068 9.53488 5.07311 12.59089 9.42218 2.46514 3.50842 2.60912 6.31534 2.61464 6.46208z"/><path d="m45.425 54.05h4.6v-3.45h-2.875v-7.475h-3.45v9.2c0 .95266.77234 1.725 1.725 1.725z"/></g></g></svg>

<?xml version="1.0" encoding="UTF-8"?>
<svg width="92px" height="113px" viewBox="0 0 92 113" version="1.1" xmlns="http://www.w3.org/2000/svg" xmlns:xlink="http://www.w3.org/1999/xlink">
    <!-- Generator: Sketch 50.2 (55047) - http://www.bohemiancoding.com/sketch -->
    <title>user-4</title>
    <desc>Created with Sketch.</desc>
    <defs></defs>
    <g id="Page-1" stroke="none" stroke-width="1" fill="none" fill-rule="evenodd">
        <g id="40-Color-Avatars" transform="translate(-605.000000, -1657.000000)">
            <g id="user-4" transform="translate(605.775000, 1657.480000)">
                <path d="M70.725,1.725 L70.725,32.775 L50.025,23.575 C36.317,35.834 20.125,32.775 20.125,32.775 L20.125,20.125 C20.125,20.125 23.713,1.725 45.425,1.725 L70.725,1.725 L70.725,1.725 Z" id="Shape" fill="#846954"></path>
                <path d="M48.875,83.375 L54.625,97.175 L47.725,109.825 L43.125,109.825 L36.225,97.175 L41.975,83.375 L42.09,82.892 C43.125,83.191 44.252,83.375 45.425,83.375 C46.598,83.375 47.725,83.191 48.76,82.892 L48.875,83.375 L48.875,83.375 Z" id="Shape" fill="#F4661E"></path>
                <path d="M67.275,84.525 C67.275,84.525 67.137,102.718 50.025,109.825 L47.725,109.825 L54.625,97.175 L48.875,83.375 L48.76,82.892 C53.705,81.535 56.925,77.625 56.925,77.625 C59.432,80.431 67.275,84.525 67.275,84.525 L67.275,84.525 Z" id="Shape" fill="#E7ECED"></path>
                <path d="M36.225,97.175 L43.125,109.825 L40.825,109.825 C23.713,102.718 23.575,84.525 23.575,84.525 C23.575,84.525 31.418,80.431 33.925,77.625 C33.925,77.625 37.145,81.535 42.09,82.892 L41.975,83.375 L36.225,97.175 L36.225,97.175 Z" id="Shape" fill="#E7ECED"></path>
                <path d="M67.275,84.525 L77.625,98.325 L68.425,102.925 L74.175,109.825 L50.025,109.825 C67.137,102.718 67.275,84.525 67.275,84.525 L67.275,84.525 Z" id="Shape" fill="#545253"></path>
                <path d="M40.825,109.825 L16.675,109.825 L22.425,102.925 L13.225,98.325 L23.575,84.525 C23.575,84.525 23.713,102.718 40.825,109.825 L40.825,109.825 Z" id="Shape" fill="#545253"></path>
                <path d="M89.125,104.075 L89.125,109.825 L74.175,109.825 L68.425,102.925 L77.625,98.325 L67.275,84.525 C89.056,91.425 89.125,104.075 89.125,104.075 L89.125,104.075 Z" id="Shape" fill="#373738"></path>
                <path d="M70.725,38.525 C74.543,38.525 77.625,39.951 77.625,43.125 C77.625,46.069 73.991,49.473 70.426,49.956 C70.633,48.484 70.725,46.966 70.725,45.425 L70.725,38.525 L70.725,38.525 Z" id="Shape" fill="#FFD7A3"></path>
                <path d="M70.426,49.956 C69.184,58.949 64.308,66.493 56.925,70.311 C53.567,72.059 49.703,73.025 45.425,73.025 C41.147,73.025 37.283,72.059 33.925,70.311 C26.542,66.493 21.666,58.949 20.424,49.956 C20.217,48.484 20.125,46.966 20.125,45.425 L20.125,38.525 L20.125,32.775 C20.125,32.775 36.317,35.834 50.025,23.575 L70.725,32.775 L70.725,38.525 L70.725,45.425 C70.725,46.966 70.633,48.484 70.426,49.956 L70.426,49.956 Z" id="Shape" fill="#FFE1B2"></path>
                <path d="M56.925,70.311 L56.925,77.625 C56.925,77.625 53.705,81.535 48.76,82.892 C47.725,83.191 46.598,83.375 45.425,83.375 C44.252,83.375 43.125,83.191 42.09,82.892 C37.145,81.535 33.925,77.625 33.925,77.625 L33.925,70.311 C37.283,72.059 41.147,73.025 45.425,73.025 C49.703,73.025 53.567,72.059 56.925,70.311 L56.925,70.311 Z" id="Shape" fill="#FFD7A3"></path>
                <path d="M23.575,84.525 L13.225,98.325 L22.425,102.925 L16.675,109.825 L1.725,109.825 L1.725,104.075 C1.725,104.075 1.932,91.494 23.575,84.525 L23.575,84.525 Z" id="Shape" fill="#373738"></path>
                <path d="M20.125,45.425 C20.125,46.966 20.217,48.484 20.424,49.956 C16.859,49.473 13.225,46.069 13.225,43.125 C13.225,39.951 16.307,38.525 20.125,38.525 L20.125,45.425 L20.125,45.425 Z" id="Shape" fill="#FFD7A3"></path>
                <path d="M68.32771,83.05369 L65.57185,81.61665 C63.22217,80.26678 60.20434,78.38883 58.64977,76.92166 L58.64977,71.33289 C65.63855,67.3371 70.41749,60.168 71.94469,51.39281 C75.90414,50.25891 79.35,46.54303 79.35,43.125 C79.35,39.66511 76.74916,37.36902 72.45,36.89338 L72.45,0 L45.425,0 C33.51606,0 26.80719,5.36199 23.27623,9.85987 C19.45248,14.73081 18.47176,19.59025 18.43197,19.79472 L18.4,19.95825 L18.4,36.89315 C14.10084,37.36879 11.5,39.66488 11.5,43.12477 C11.5,46.5428 14.94609,50.25868 18.90508,51.39235 C20.43389,60.17099 25.21352,67.33986 32.2,71.33266 L32.2,76.92143 C30.64566,78.3886 27.62783,80.26678 25.27792,81.61642 L22.51953,83.05691 C0.48139,90.35734 0.00943,103.48666 0.00023,104.04625 L0,111.55 L90.85,111.55 L90.85,104.06557 C90.84678,103.5023 90.51535,90.28972 68.32771,83.05369 L68.32771,83.05369 Z M45.425,74.75 C48.89317,74.75 52.16952,74.15315 55.2,72.97877 L55.2,76.96099 C54.2685,77.93389 51.74379,80.28449 48.30368,81.22841 L48.28114,81.23462 C46.37444,81.7857 44.47602,81.7857 42.56886,81.23462 L42.54655,81.22841 C39.1322,80.29139 36.58679,77.92975 35.65,76.95754 L35.65,72.97854 C38.68186,74.15338 41.95752,74.75 45.425,74.75 L45.425,74.75 Z M56.98158,80.04759 C59.53987,82.19119 63.5789,84.48636 65.48675,85.52481 C65.15946,89.14225 63.15064,101.52062 50.9519,107.51143 L56.53538,97.27505 L50.98433,83.95253 C53.67257,82.86187 55.74809,81.20541 56.98158,80.04759 L56.98158,80.04759 Z M39.86567,83.9523 L34.31462,97.27482 L39.89534,107.50614 C34.11429,104.67783 29.92277,100.14016 27.43164,93.98582 C25.9624,90.35573 25.50516,87.10514 25.36348,85.52481 C27.27133,84.48636 31.31036,82.19119 33.86865,80.04759 C35.10191,81.20541 37.17743,82.86187 39.86567,83.9523 L39.86567,83.9523 Z M24.18128,95.15031 C26.32465,100.51138 29.73141,104.89932 34.18559,108.1 L20.35799,108.1 L25.14452,102.35621 L15.84516,97.70653 L22.3767,88.99781 C22.7148,90.7419 23.27002,92.87078 24.18128,95.15031 L24.18128,95.15031 Z M38.13538,97.07495 L43.20389,84.91025 C44.6821,85.1575 46.16767,85.1575 47.64588,84.91025 L52.71462,97.07495 L46.70104,108.1 L44.14896,108.1 L38.13538,97.07495 L38.13538,97.07495 Z M66.66872,95.15031 C67.57998,92.87078 68.1352,90.7419 68.4733,88.99781 L75.00484,97.70653 L65.70525,102.35621 L70.49201,108.1 L56.66464,108.1 C61.11882,104.89932 64.52558,100.51115 66.66872,95.15031 L66.66872,95.15031 Z M75.9,43.125 C75.9,44.53398 74.37579,46.45241 72.38882,47.5111 C72.42677,46.82938 72.45,40.36086 72.45,40.36086 C75.52441,40.79188 75.9,42.38164 75.9,43.125 L75.9,43.125 Z M26.08039,11.87582 C30.52859,6.28498 37.03713,3.45 45.425,3.45 L69,3.45 L69,30.12057 L49.70645,21.54571 L48.875,22.2893 C43.48679,27.10803 37.08129,30.05364 29.83675,31.04471 C26.3258,31.52495 23.45747,31.40374 21.85,31.25493 L21.85,20.31429 C22.03676,19.52585 23.0667,15.66346 26.08039,11.87582 L26.08039,11.87582 Z M14.95,43.125 C14.95,42.38164 15.32559,40.79188 18.4,40.36086 C18.4,40.36086 18.42323,46.82961 18.46118,47.5111 C16.47421,46.45218 14.95,44.53398 14.95,43.125 L14.95,43.125 Z M22.13221,49.71588 C21.94499,48.38418 21.85,46.9407 21.85,45.425 L21.85,34.72103 C23.67758,34.8726 26.60893,34.95517 30.16243,34.48183 C35.45059,33.77734 43.15421,31.65605 50.32791,25.59716 L69,33.89602 L69,45.425 C69,46.93978 68.90501,48.38349 68.71733,49.72002 C67.53099,58.30983 62.94387,65.25629 56.12874,68.78104 C52.91725,70.45245 49.31614,71.3 45.425,71.3 C41.53409,71.3 37.93275,70.45245 34.71735,68.77874 C27.90613,65.25652 23.31924,58.30983 22.13221,49.71588 L22.13221,49.71588 Z M3.45,104.09593 C3.4615,103.78267 3.97141,94.74551 18.63161,88.24111 L10.60484,98.94347 L19.70548,103.49379 L15.86701,108.1 L3.45,108.1 L3.45,104.09593 L3.45,104.09593 Z M87.4,108.1 L74.98299,108.1 L71.14452,103.49379 L80.24493,98.94347 L72.19447,88.20937 C76.8591,90.26005 81.72935,93.28248 84.78536,97.63155 C87.2505,101.13997 87.39448,103.94689 87.4,104.09363 L87.4,108.1 L87.4,108.1 Z" id="Shape" fill="#231F20"></path>
                <path d="M45.425,54.05 L50.025,54.05 L50.025,50.6 L47.15,50.6 L47.15,43.125 L43.7,43.125 L43.7,52.325 C43.7,53.27766 44.47234,54.05 45.425,54.05 L45.425,54.05 Z" id="Shape" fill="#231F20"></path>
            </g>
        </g>
    </g>
</svg>
